X:96
T:Renewing the Vow
M:C|
L:1/8
C:© Paul Gitlitz 2003
R:Reel
B:Hunters and Gatherers
N:After a year and a day Karen and I renewed our vows made at our Handfasting.
K:A
"A"Acfc "E"ecBA|GABG "A"AGFE|"F#m"Acfc "E"ecBA|GABG "A"A2AA|!
"A"Acfc "E"ecBA|GABG "A"AGFE|"F#m"Acfc "E"ecBA|GABG "A"A4|!
|:"A"C2EC FCEC| "Bm"B,2DB, "E"EB,DB,|"A"A,2EA, FA,EA,|"E"EFGE "F#m"FGAB|!
"A"c2ec  fcec|"E"B2eB gBeB|"F#m"agfe "D"fedc|"E"BAGB "A"A4:|]
